resources/icons/20px/intelligence.svg

<svg width="20" height="20" viewBox="0 0 20 20" fill="none" xmlns="http://www.w3.org/2000/svg">
<path fill-rule="evenodd" clip-rule="evenodd" d="M10 9C9.45 9 9 9.45 9 10C9 10.55 9.45 11 10 11C10.55 11 11 10.55 11 10C11 9.45 10.54 9 10 9ZM14.9921 9.975V9.93125C14.9796 9.84375 14.9422 9.76875 14.8859 9.70625C14.5673 9.2875 14.1861 8.91875 13.7988 8.58125C12.9678 7.85 12.0181 7.2375 10.9746 6.99375C10.3686 6.85 9.75628 6.84375 9.15647 6.96875C8.59414 7.08125 8.06306 7.30625 7.56321 7.5875C6.78221 8.03125 6.06368 8.6375 5.43888 9.31875C5.32641 9.44375 5.21395 9.575 5.10773 9.7125C4.97027 9.89375 4.97027 10.1125 5.10773 10.2937C5.42638 10.7125 5.80751 11.0812 6.19489 11.4187C7.02588 12.15 7.97558 12.7625 9.01901 13.0062C9.62507 13.15 10.2374 13.1562 10.8497 13.0312C11.4058 12.9187 11.9368 12.6937 12.4429 12.4125C13.2239 11.9687 13.9425 11.3625 14.561 10.6812C14.6735 10.5562 14.7922 10.425 14.8984 10.2875C14.9547 10.225 14.9921 10.1437 15.0046 10.0625V10C14.9921 9.9875 14.9921 9.98125 14.9921 9.975ZM10 12C8.89333 12 8 11.1067 8 10C8 8.89333 8.89333 8 10 8C11.1067 8 12 8.89333 12 10C12 11.1067 11.1067 12 10 12ZM7 1C7 0.447715 6.55228 0 6 0H1C0.447715 0 0 0.447715 0 1V6C0 6.55228 0.447715 7 1 7C1.55228 7 2 6.55228 2 6V2H6C6.55228 2 7 1.55228 7 1ZM13 1C13 0.447715 13.4477 0 14 0H19C19.5523 0 20 0.447715 20 1V6C20 6.55228 19.5523 7 19 7C18.4477 7 18 6.55228 18 6V2H14C13.4477 2 13 1.55228 13 1ZM13 19C13 19.5523 13.4477 20 14 20H19C19.5523 20 20 19.5523 20 19V14C20 13.4477 19.5523 13 19 13C18.4477 13 18 13.4477 18 14V18H14C13.4477 18 13 18.4477 13 19ZM7 19C7 19.5523 6.55228 20 6 20H1C0.447715 20 0 19.5523 0 19V14C0 13.4477 0.447715 13 1 13C1.55228 13 2 13.4477 2 14V18H6C6.55228 18 7 18.4477 7 19Z" fill="#5F6B7C"/>
</svg>

<svg xmlns="http://www.w3.org/2000/svg" viewBox="0 0 20 20">
  <path d="M10 9c-.55 0-1 .45-1 1s.45 1 1 1 1-.45 1-1-.46-1-1-1m4.992.975v-.044a.4.4 0 0 0-.106-.225 7.7 7.7 0 0 0-1.087-1.125c-.831-.731-1.78-1.343-2.824-1.587a4.15 4.15 0 0 0-1.819-.025c-.562.112-1.093.337-1.593.619-.78.443-1.5 1.05-2.124 1.73a7 7 0 0 0-.331.395.46.46 0 0 0 0 .58c.318.42.7.788 1.087 1.126.83.731 1.78 1.343 2.824 1.587q.91.214 1.83.025c.557-.112 1.088-.337 1.594-.619.78-.443 1.5-1.05 2.118-1.73.113-.126.231-.257.337-.395a.44.44 0 0 0 .107-.225V10c-.013-.012-.013-.019-.013-.025M10 12c-1.107 0-2-.893-2-2s.893-2 2-2 2 .893 2 2-.893 2-2 2M7 1a1 1 0 0 0-1-1H1a1 1 0 0 0-1 1v5a1 1 0 0 0 2 0V2h4a1 1 0 0 0 1-1m6 0a1 1 0 0 1 1-1h5a1 1 0 0 1 1 1v5a1 1 0 1 1-2 0V2h-4a1 1 0 0 1-1-1m0 18a1 1 0 0 0 1 1h5a1 1 0 0 0 1-1v-5a1 1 0 1 0-2 0v4h-4a1 1 0 0 0-1 1m-6 0a1 1 0 0 1-1 1H1a1 1 0 0 1-1-1v-5a1 1 0 1 1 2 0v4h4a1 1 0 0 1 1 1"/>
</svg>
